Obsidian-SemiLight/actions/22s/text_remove_kerns.svg

<svg viewBox="0 0 22 22" xmlns="http://www.w3.org/2000/svg"><path d="m2 4s4.1338219 14.01731 4.1386719 14c.010873.0068.3532707.002.609375 0 .1625277-.0013.1988223.0013.3867187 0 .3661036.0032.8152679.0092.8300782 0 .0049999.0173 4.1386722-14 4.1386722-14h-1.103516l-3.7207031 12h-.4628907s-3.7135259-12.0004027-3.7128906-12zm11.378906 0-4.3359372 13.863281-.0429688.136719h1.136719l1.564453-5h4.861328.320312 1.16211l-3.517578-9zm.509766 2h.257812l2.345704 6h-4.480469z" fill="#4d4d4d"/><path d="m14.99023 14-.99023.9902 2.00976 2.0098-2.00976 2.0098.99023.9902 2.00977-2.0098 2.00976 2.0098.99024-.9902-2.00977-2.0098 2.00977-2.0098-.99024-.9902-2.00976 2.0098z" fill="#da4453"/></svg>

<svg xmlns="http://www.w3.org/2000/svg" xmlns:inkscape="http://www.inkscape.org/namespaces/inkscape" viewBox="0 0 22 22">
  <defs id="defs3051">
    <style type="text/css" id="current-color-scheme">
      .ColorScheme-Text {
        color:#4d4d4d;
      }
      </style>
  </defs>
  <path
     style="fill:currentColor;fill-opacity:1;stroke:none"
     d="M 2 4 C 2 4 6.1338219 18.01731 6.1386719 18 C 6.1495449 18.0068 6.4919426 18.002 6.7480469 18 C 6.9105746 17.9987 6.9468692 18.0013 7.1347656 18 C 7.5008692 18.0032 7.9500335 18.0092 7.9648438 18 C 7.9698437 18.0173 12.103516 4 12.103516 4 L 11 4 L 7.2792969 16 L 6.8164062 16 C 6.8164062 16 3.1028803 3.9995973 3.1035156 4 L 2 4 z M 13.378906 4 L 9.0429688 17.863281 L 9 18 L 10.136719 18 L 11.701172 13 L 16.5625 13 L 16.882812 13 L 18.044922 13 L 14.527344 4 L 13.378906 4 z M 13.888672 6 L 14.146484 6 L 16.492188 12 L 12.011719 12 L 13.888672 6 z "
     class="ColorScheme-Text"
     id="path6" />
  <path
     inkscape:connector-curvature="0"
     style="fill:#da4453;fill-opacity:1;stroke:none"
     d="M 14.99023,14 14,14.9902 16.00976,17 14,19.0098 14.99023,20 17,17.9902 19.00976,20 20,19.0098 17.99023,17 20,14.9902 19.00976,14 17,16.0098 14.99023,14 Z"
     id="rect4126" />
</svg>
